priv/static/svgs/icons_new/sport-golf.svg

<svg width="32" height="32" viewBox="0 0 32 32" fill="none" xmlns="http://www.w3.org/2000/svg">
<path d="M13.0001 23.3155L16.2606 28L19.0752 23.2894M21.6827 10.6098C21.1045 10.1912 20.2896 10.2435 19.7902 10.7406C19.2645 11.2638 19.2119 12.0749 19.6588 12.6243M17.819 14.4295C17.2407 14.0109 16.4259 14.0632 15.9265 14.5603C15.4007 15.0835 15.3482 15.8946 15.795 16.444M13.9814 18.2752C13.4031 17.8566 12.5882 17.9089 12.0888 18.406C11.5631 18.9292 11.5105 19.7403 11.9574 20.2897M13.0429 9.67568C12.4646 9.2571 11.6498 9.30942 11.1504 9.80649C10.6247 10.3297 10.5721 11.1407 11.0189 11.6901M12.6436 14.3205C12.0653 13.9019 11.2505 13.9542 10.751 14.4513C10.2253 14.9745 10.1728 15.7855 10.6196 16.3349M15.2195 11.7568C14.7989 11.1812 14.8515 10.3702 15.3509 9.87312C15.8766 9.34988 16.6915 9.29755 17.2435 9.74231M16.1873 5.50193C21.2672 5.60484 25.3015 9.78701 25.1981 14.8431C25.0947 19.8991 20.8928 23.9145 15.8128 23.8115C10.7329 23.7086 6.6986 19.5265 6.80199 14.4704C6.90539 9.41435 11.1073 5.39903 16.1873 5.50193Z" stroke="black" stroke-miterlimit="10" stroke-linecap="round" stroke-linejoin="round"/>
</svg>

<svg width="32" height="32" viewBox="0 0 32 32" fill="none" xmlns="http://www.w3.org/2000/svg">
  <symbol id="item" viewBox="0 0 32 32" stroke-width="1" fill="none">
    <path d="M13 23.316 16.26 28l2.815-4.71m2.608-12.68c-.578-.419-1.393-.367-1.893.13-.525.524-.578 1.335-.131 1.884m-1.84 1.806c-.578-.42-1.393-.367-1.892.13-.526.524-.579 1.335-.132 1.884m-1.814 1.831c-.578-.418-1.393-.366-1.892.131-.526.523-.579 1.334-.132 1.884m1.086-10.614c-.578-.419-1.393-.367-1.893.13-.525.524-.578 1.335-.131 1.884m1.625 2.63c-.579-.418-1.393-.366-1.893.131-.526.524-.578 1.335-.131 1.884m4.6-4.578c-.421-.576-.369-1.387.13-1.884.527-.523 1.342-.575 1.894-.13m-1.057-4.241c5.08.103 9.114 4.285 9.011 9.341-.103 5.056-4.305 9.072-9.385 8.968-5.08-.102-9.114-4.285-9.011-9.34.103-5.057 4.305-9.072 9.385-8.97Z" stroke="currentColor" stroke-miterlimit="10" stroke-linecap="round" stroke-linejoin="round"/>
  </symbol>
</svg>
